X:302
T: Claur Bug Deal
T: Cl\'ar Bog D\'eil
N: O'Farrell's Pocket Companion v.4 (Sky ed. p.135)
N: "Irish"
M: 3/4
L: 1/8
R: blank
Q: 90
K: Am
a/g/| f2 e>dcA| {g}fe/d/ e>d c/A/G/E/| G2 AA A2|
AG E2 G2| A>B c2 d2| c>A d>cde| {g}fe/d/ e>d c/B/A/G/|
E2G2 AB| cBcd cA| dcde fe/d/| He2 ab c'/b/a/g/| f2 e>dcA|
{g}fe/d/ e3d| c/A/G/E/ G2 AA| A4-A :|
